svg/u1f437.svg

<svg viewBox="0 0 128 128" xmlns="http://www.w3.org/2000/svg">
  <path d="M37.48,23.4c0,0,9.76-5.07,26.28-5.07s27.97,4.13,27.97,4.13s1.88-4.5,4.69-6.01s7.7-2.25,11.83-0.56 c4.13,1.69,14.45,12.67,15.02,13.61c0.56,0.94,0.96,2.3,0.77,2.67c-0.19,0.38-10.07,16.12-10.07,16.12s1.5,3.64,2.96,8.73 c0.62,2.18,4.83,13.49,2.58,27.01s-11.97,27.96-29.28,32.66c-17.27,4.69-44.11,5.63-61-2.82C12.85,105.69,7.45,93.04,6.7,79.9 s4.5-24.14,4.5-24.14l6.38-8.7c0,0-13.4-13.26-13.77-14.38c-0.38-1.13,1.2-3.26,6.45-7.77s10.11-8.52,13.26-9.55 c3.24-1.06,6.83-0.59,9.08,1.48C34.85,18.9,37.48,23.4,37.48,23.4z" fill="#FFD3B0"/>
  <path d="M93.51,25c-1.87,1.09,0.3,5.11,1.31,7.51c1.78,4.22,4.61,12.58,9.29,17.83 c5.44,6.1,12.39,5.44,12.39,5.44s-1.41-4.79-1.97-5.91c0.09-0.84,4.04-7.04,5.16-9.2c1.13-2.16,3.47-5.82,3.94-7.7 c0.47-1.88-0.66-1.31-1.31-1.03c-0.66,0.28-13.89,8.17-13.89,8.17s-3.19,1.22-4.22,0.09s-2.91-6.29-4.32-9.67 C99.09,28.61,96.89,23.03,93.51,25z" fill="#FFA5A8"/>
  <path d="M104.12,40.69c0.56,1.69,2.89,1.9,5.21,1.34c3.4-0.82,5.52-3.12,7.67-4.72 c2.96-2.18,5.91-2.82,6.62-3.59c0.7-0.77,0.99-2.96-0.63-2.53c-1.62,0.42-3.66,0.63-6.97,2.82c-2.85,1.88-5.22,3.91-7.25,4.93 C106.93,39.85,103.56,39.02,104.12,40.69z" fill="#FD7E89"/>
  <path d="M25,39.5c0.35-0.42,3.94-9.01,4.72-10.7c0.77-1.69,2.96-6.34,5.42-4.29s-0.63,10-3.8,15.56 s-6.69,10.7-9.08,12.88c-1.37,1.25-3.94,2.96-6.83,3.24c-1.69,0.17-4.58,0.21-4.58,0.21s0.77-2.25,1.69-4.15 c0.31-0.65,1.06-2.18,1.34-2.82c0-0.49-2.18-3.59-3.66-5.84C9.4,42.34,4.3,34.01,4.23,33.02c-0.07-0.99,1.2-0.56,2.53-0.28 s10.21,4.65,10.21,4.65L25,39.5z" fill="#FFA5A8"/>
  <path d="M15.49,38.93c2.97,1.6,4.52,2.75,7.25,2.39c2.18-0.28,3.03-1.41,2.67-2.25 c-0.35-0.84-1.76-0.56-2.75-0.77c-2.28-0.49-4.12-1.89-5.91-2.82c-2.46-1.27-5.07-2.96-8.02-3.52c-2.49-0.47-5.49-0.42-4.79,1.2 c0.7,1.62,3,1.4,5.21,2.46C11.34,36.68,13.66,37.95,15.49,38.93z" fill="#FD7C88"/>
  <path d="M36.61,88.28c-1.61,1.73-0.28,3.95,2.11,5.7c2.89,2.11,8.17,6.19,23.72,6.19 c16.4,0,21.93-5.21,23.83-6.62c1.71-1.27,3.77-3.45,2.15-5.21c-1.62-1.76-5.77,1.34-6.9,1.97c-1.13,0.63-9.78,5.14-18.72,5 c-7.25-0.11-14.78-2.53-17.03-3.45C41.61,90.18,38.51,86.24,36.61,88.28z" fill="#312F2C"/>
  <path d="M63.36,69.41C55.55,69.03,44,74.62,44.14,84.69c0.14,10.07,9.71,11.88,18.86,12.11 c8.59,0.21,18.79-3.38,18.72-12.39C81.67,76.23,74.83,69.98,63.36,69.41z" fill="#FD7E84"/>
  <path d="M95.81,69.06c0,4.2-2.25,8.09-6.02,8.02c-3.56-0.07-6.09-3.4-6.09-7.6c0-4.2,2.88-7.6,6.09-7.6 C93,61.88,95.81,64.86,95.81,69.06z" fill="#2C2F31"/>
  <path d="M42.67,69.34c0,4.2-2.11,7.53-5.88,7.6c-3.84,0.07-6.23-3.19-6.23-7.39c0-4.2,2.99-7.6,6.19-7.6 S42.67,65.14,42.67,69.34z" fill="#2C2F31"/>
  <path d="M73.85,83.69c0,4.2-1.01,8.04-3.52,8.09c-2.96,0.07-3.52-3.69-3.52-7.88s0.99-7.32,3.52-7.25 C72.92,76.72,73.85,79.49,73.85,83.69z" fill="#2C2F31"/>
  <path d="M59.69,83.34c0,4.2-1.01,8.04-3.52,8.09c-2.96,0.07-3.52-3.69-3.52-7.88s0.99-7.32,3.52-7.25 C58.76,76.37,59.69,79.14,59.69,83.34z" fill="#2C2F31"/>
</svg>

<svg viewBox="0 0 128 128" xmlns="http://www.w3.org/2000/svg">
  <defs/>
  <path d="M37.48,23.4 C37.48,23.4 47.24,18.33 63.76,18.33 C80.28,18.33 91.73,22.46 91.73,22.46 C91.73,22.46 93.61,17.96 96.42,16.45 C99.23,14.94 104.12,14.2 108.25,15.89 C112.38,17.58 122.7,28.56 123.27,29.5 C123.83,30.44 124.23,31.8 124.04,32.17 C123.85,32.55 113.97,48.29 113.97,48.29 C113.97,48.29 115.47,51.93 116.93,57.02 C117.55,59.2 121.76,70.51 119.51,84.03 C117.26,97.55 107.54,111.99 90.23,116.69 C72.96,121.38 46.12,122.32 29.23,113.87 C12.85,105.69 7.45,93.04 6.7,79.9 C5.95,66.76 11.2,55.76 11.2,55.76 L17.58,47.06 C17.58,47.06 4.18,33.8 3.81,32.68 C3.43,31.55 5.01,29.42 10.26,24.91 C15.51,20.4 20.37,16.39 23.52,15.36 C26.76,14.3 30.35,14.77 32.6,16.84 C34.85,18.9 37.48,23.4 37.48,23.4 Z" fill="#FFD3B0"/>
  <path d="M93.51,25 C91.64,26.09 93.81,30.11 94.82,32.51 C96.6,36.73 99.43,45.09 104.11,50.34 C109.55,56.44 116.5,55.78 116.5,55.78 C116.5,55.78 115.09,50.99 114.53,49.87 C114.62,49.03 118.57,42.83 119.69,40.67 C120.82,38.51 123.16,34.85 123.63,32.97 C124.1,31.09 122.97,31.66 122.32,31.94 C121.66,32.22 108.43,40.11 108.43,40.11 C108.43,40.11 105.24,41.33 104.21,40.2 C103.18,39.07 101.3,33.91 99.89,30.53 C99.09,28.61 96.89,23.03 93.51,25 Z" fill="#FFA5A8"/>
  <path d="M104.12,40.69 C104.68,42.38 107.01,42.59 109.33,42.03 C112.73,41.21 114.85,38.91 117,37.31 C119.96,35.13 122.91,34.49 123.62,33.72 C124.32,32.95 124.61,30.76 122.99,31.19 C121.37,31.61 119.33,31.82 116.02,34.01 C113.17,35.89 110.8,37.92 108.77,38.94 C106.93,39.85 103.56,39.02 104.12,40.69 Z" fill="#FD7E89"/>
  <path d="M25,39.5 C25.35,39.08 28.94,30.49 29.72,28.8 C30.49,27.11 32.68,22.46 35.14,24.51 C37.6,26.56 34.51,34.51 31.34,40.07 C28.17,45.63 24.65,50.77 22.26,52.95 C20.89,54.2 18.32,55.91 15.43,56.19 C13.74,56.36 10.85,56.4 10.85,56.4 C10.85,56.4 11.62,54.15 12.54,52.25 C12.85,51.6 13.6,50.07 13.88,49.43 C13.88,48.94 11.7,45.84 10.22,43.59 C9.4,42.34 4.3,34.01 4.23,33.02 C4.16,32.03 5.43,32.46 6.76,32.74 C8.09,33.02 16.97,37.39 16.97,37.39 L25,39.5 Z" fill="#FFA5A8"/>
  <path d="M15.49,38.93 C18.46,40.53 20.01,41.68 22.74,41.32 C24.92,41.04 25.77,39.91 25.41,39.07 C25.06,38.23 23.65,38.51 22.66,38.3 C20.38,37.81 18.54,36.41 16.75,35.48 C14.29,34.21 11.68,32.52 8.73,31.96 C6.24,31.49 3.24,31.54 3.94,33.16 C4.64,34.78 6.94,34.56 9.15,35.62 C11.34,36.68 13.66,37.95 15.49,38.93 Z" fill="#FD7C88"/>
  <path d="M36.61,88.28 C35,90.01 36.33,92.23 38.72,93.98 C41.61,96.09 46.89,100.17 62.44,100.17 C78.84,100.17 84.37,94.96 86.27,93.55 C87.98,92.28 90.04,90.1 88.42,88.34 C86.8,86.58 82.65,89.68 81.52,90.31 C80.39,90.94 71.74,95.45 62.8,95.31 C55.55,95.2 48.02,92.78 45.77,91.86 C41.61,90.18 38.51,86.24 36.61,88.28 Z" fill="#312F2C"/>
  <path d="M63.36,69.41 C55.55,69.03 44,74.62 44.14,84.69 C44.28,94.76 53.85,96.57 63,96.8 C71.59,97.01 81.79,93.42 81.72,84.41 C81.67,76.23 74.83,69.98 63.36,69.41 Z" fill="#FD7E84"/>
  <path d="M95.81,69.06 C95.81,73.26 93.56,77.15 89.79,77.08 C86.23,77.01 83.7,73.68 83.7,69.48 C83.7,65.28 86.58,61.88 89.79,61.88 C93,61.88 95.81,64.86 95.81,69.06 Z" fill="#2C2F31"/>
  <path d="M42.67,69.34 C42.67,73.54 40.56,76.87 36.79,76.94 C32.95,77.01 30.56,73.75 30.56,69.55 C30.56,65.35 33.55,61.95 36.75,61.95 C39.95,61.95 42.67,65.14 42.67,69.34 Z" fill="#2C2F31"/>
  <path d="M73.85,83.69 C73.85,87.89 72.84,91.73 70.33,91.78 C67.37,91.85 66.81,88.09 66.81,83.9 C66.81,79.71 67.8,76.58 70.33,76.65 C72.92,76.72 73.85,79.49 73.85,83.69 Z" fill="#2C2F31"/>
  <path d="M59.69,83.34 C59.69,87.54 58.68,91.38 56.17,91.43 C53.21,91.5 52.65,87.74 52.65,83.55 C52.65,79.36 53.64,76.23 56.17,76.3 C58.76,76.37 59.69,79.14 59.69,83.34 Z" fill="#2C2F31"/>
</svg>
